dist/assets/img/svgIcons/warranty_icon.svg

<svg width="85" height="98" viewBox="0 0 85 98" fill="none" xmlns="http://www.w3.org/2000/svg">
<path d="M37.5057 2.87905C40.5968 1.09712 44.4032 1.09713 47.4943 2.87906L79.9943 21.6143C83.0915 23.3998 85 26.7029 85 30.2779V67.7221C85 71.2971 83.0915 74.6002 79.9943 76.3857L47.4943 95.1209C44.4032 96.9029 40.5968 96.9029 37.5057 95.1209L5.00571 76.3856C1.90848 74.6002 0 71.2971 0 67.7221V30.2779C0 26.7029 1.90848 23.3998 5.00572 21.6144L37.5057 2.87905Z" fill="#FF8502"/>
<g filter="url(#filter0_i_482_995)">
<path fill-rule="evenodd" clip-rule="evenodd" d="M42.4947 18.0009C43.5616 17.9831 44.6061 18.2697 45.4702 18.8173C46.6423 19.4667 47.9418 20.7424 49.5595 21.5495C51.8296 22.686 56.0409 21.1181 58.1995 23.9199C59.4566 25.5527 59.5149 26.833 59.6104 28.0947C59.6781 29.7363 60.3727 31.3107 61.5834 32.5664C64.2354 35.6234 64.7658 37.669 63.4133 39.7843C62.4851 41.2269 60.528 42.0341 60.0771 42.9479C59.1118 44.9008 60.1779 46.3666 58.8572 48.6396C58.4412 49.3886 57.8529 50.0546 57.1292 50.5957C56.4055 51.1369 55.5619 51.5416 54.6512 51.7846C53.0601 52.2485 51.4689 51.5852 50.2013 52.0537C47.9683 52.8794 46.3188 54.7859 44.5208 55.2683C43.1858 55.6319 41.7559 55.6319 40.4209 55.2683C38.6441 54.8044 36.9946 52.8794 34.7669 52.0583C33.494 51.5944 31.9028 52.2392 30.3169 51.7893C29.4046 51.5481 28.5593 51.1441 27.8344 50.6028C27.1096 50.0614 26.5209 49.3946 26.1056 48.6442C24.785 46.3713 25.8511 44.9054 24.8857 42.9525C24.4349 42.0248 22.4778 41.2316 21.5496 39.7889C20.1865 37.6644 20.7381 35.6141 23.3847 32.5711C24.5898 31.3124 25.2837 29.7398 25.3578 28.0994C25.448 26.833 25.5063 25.5527 26.7686 23.9245C28.922 21.1413 33.1333 22.6906 35.4087 21.5541C36.9999 20.747 38.3311 19.4714 39.4927 18.8266C40.3633 18.2718 41.4177 17.9817 42.4947 18.0009ZM42.203 30.0012C42.5 28.6838 44.9663 29.8945 45.1254 32.0144C45.1623 32.7692 45.091 33.525 44.9133 34.2642H48.4351C49.8989 34.3152 51.1772 35.2337 50.2755 36.7366C50.4824 37.3953 50.5142 38.1654 49.952 38.4669C50.0163 38.8653 49.9709 39.2714 49.8196 39.6514C49.6683 40.0314 49.4155 40.3744 49.0821 40.6517C49.0733 41.1231 48.9174 41.5835 48.6313 41.983C48.1593 42.5675 47.7721 42.4469 47.0401 42.4469H41.0839C40.6756 42.4687 40.2682 42.394 39.9043 42.2308C39.5404 42.0676 39.2333 41.8218 39.0153 41.5192V35.7393C40.7868 35.3218 41.7256 33.1973 42.1977 31.8057V30.0059L42.203 30.0012ZM34.8465 34.9183H37.5409C37.69 34.9183 37.833 34.9701 37.9384 35.0623C38.0438 35.1545 38.1031 35.2796 38.1031 35.41V41.9598C38.1038 42.0248 38.0897 42.0892 38.0618 42.1494C38.0339 42.2096 37.9926 42.2644 37.9403 42.3105C37.888 42.3567 37.8258 42.3933 37.7572 42.4183C37.6887 42.4433 37.6151 42.4562 37.5409 42.4562H34.8465C34.6969 42.455 34.5539 42.4021 34.4486 42.3092C34.3433 42.2162 34.2843 42.0907 34.2843 41.9598V35.41C34.2856 35.2799 34.3453 35.1556 34.4505 35.0636C34.5556 34.9717 34.6978 34.9195 34.8465 34.9183ZM36.3952 39.2647C36.5358 39.2647 36.6732 39.3012 36.7901 39.3695C36.9069 39.4378 36.998 39.5349 37.0518 39.6485C37.1056 39.762 37.1197 39.887 37.0923 40.0076C37.0649 40.1282 36.9972 40.2389 36.8978 40.3259C36.7984 40.4128 36.6717 40.472 36.5339 40.496C36.396 40.52 36.2531 40.5077 36.1232 40.4606C35.9934 40.4136 35.8824 40.3339 35.8043 40.2317C35.7262 40.1294 35.6845 40.0093 35.6845 39.8863C35.6845 39.7215 35.7594 39.5634 35.8927 39.4468C36.0259 39.3302 36.2067 39.2647 36.3952 39.2647ZM19.7993 70.4508L25.9571 69.4906L28.9963 74.2453C31.1974 76.6342 32.5976 72.7099 33.2394 71.3414L39.1002 61.6048C37.7371 61.1919 36.0982 59.9952 34.4062 58.6592C31.0383 58.7195 27.8984 58.1953 25.5912 55.6394L18.7969 67.1017L18.2028 68.2057C17.7414 69.639 17.9854 70.5853 19.794 70.4508H19.7993ZM65.1848 70.4508L59.0588 69.4906L56.0196 74.2453C53.8132 76.6342 52.413 72.7099 51.7765 71.3414L45.8839 61.6048C47.247 61.1919 48.8912 59.9952 50.5778 58.6592C53.9458 58.7195 57.0857 58.1953 59.3929 55.6394L66.1925 67.1202L66.7972 68.2057C67.2586 69.639 67.0146 70.5853 65.206 70.4508H65.1848ZM42.4947 25.112C45.131 25.1157 47.7069 25.8028 49.8969 27.0864C52.0869 28.37 53.7926 30.1926 54.7986 32.3239C55.8045 34.4551 56.0656 36.7993 55.5487 39.0602C55.0318 41.3211 53.7602 43.3973 51.8945 45.0264C50.0289 46.6554 47.653 47.7643 45.067 48.2127C42.4811 48.6612 39.8011 48.4292 37.3659 47.546C34.9307 46.6628 32.8494 45.1681 31.3852 43.2507C29.921 41.3334 29.1395 39.0794 29.1395 36.7738C29.1388 35.2406 29.4839 33.7223 30.1551 32.306C30.8262 30.8896 31.8103 29.603 33.0509 28.5197C34.2914 27.4365 35.7641 26.5779 37.3847 25.9932C39.0052 25.4084 40.7417 25.109 42.4947 25.112Z" fill="white"/>
</g>
<defs>
<filter id="filter0_i_482_995" x="18" y="18" width="49.1" height="57.7" filterUnits="userSpaceOnUse" color-interpolation-filters="sRGB">
<feFlood flood-opacity="0" result="BackgroundImageFix"/>
<feBlend mode="normal" in="SourceGraphic" in2="BackgroundImageFix" result="shape"/>
<feColorMatrix in="SourceAlpha" type="matrix" values="0 0 0 0 0 0 0 0 0 0 0 0 0 0 0 0 0 0 127 0" result="hardAlpha"/>
<feOffset dx="0.1" dy="0.7"/>
<feGaussianBlur stdDeviation="0.55"/>
<feComposite in2="hardAlpha" operator="arithmetic" k2="-1" k3="1"/>
<feColorMatrix type="matrix" values="0 0 0 0 0 0 0 0 0 0 0 0 0 0 0 0 0 0 0.7 0"/>
<feBlend mode="normal" in2="shape" result="effect1_innerShadow_482_995"/>
</filter>
</defs>
</svg>

<svg xmlns="http://www.w3.org/2000/svg" fill="none" viewBox="0 0 85 98">
  <path fill="#ff8502" d="M37.506 2.879a10 10 0 0 1 9.988 0l32.5 18.735A10 10 0 0 1 85 30.278v37.444a10 10 0 0 1-5.006 8.664l-32.5 18.735a10 10 0 0 1-9.988 0l-32.5-18.735A10 10 0 0 1 0 67.722V30.278a10 10 0 0 1 5.006-8.664z"/>
  <g filter="url(#a)">
    <path fill="#fff" fill-rule="evenodd" d="M42.495 18a5.4 5.4 0 0 1 2.975.817c1.172.65 2.472 1.925 4.09 2.732 2.27 1.137 6.48-.43 8.64 2.37 1.257 1.634 1.315 2.914 1.41 4.176.068 1.641.763 3.216 1.973 4.471 2.652 3.057 3.183 5.103 1.83 7.218-.928 1.443-2.885 2.25-3.336 3.164-.965 1.953.1 3.419-1.22 5.692a6.2 6.2 0 0 1-1.728 1.956 7.3 7.3 0 0 1-2.478 1.189c-1.59.464-3.182-.2-4.45.269-2.233.825-3.882 2.732-5.68 3.214a7.84 7.84 0 0 1-4.1 0c-1.777-.464-3.426-2.389-5.654-3.21-1.273-.464-2.864.181-4.45-.269a7.2 7.2 0 0 1-2.483-1.186 6.2 6.2 0 0 1-1.728-1.959c-1.321-2.273-.255-3.739-1.22-5.691-.451-.928-2.408-1.721-3.336-3.164-1.364-2.125-.812-4.175 1.835-7.218 1.205-1.259 1.899-2.831 1.973-4.472.09-1.266.148-2.546 1.41-4.175 2.154-2.783 6.365-1.233 8.64-2.37 1.592-.807 2.923-2.083 4.085-2.727A5.43 5.43 0 0 1 42.495 18m-.292 12.001c.297-1.317 2.763-.107 2.922 2.013a8 8 0 0 1-.212 2.25h3.522c1.464.051 2.742.97 1.84 2.473.207.658.24 1.428-.323 1.73a2.23 2.23 0 0 1-.132 1.184 2.5 2.5 0 0 1-.738 1 2.36 2.36 0 0 1-.45 1.332c-.473.585-.86.464-1.592.464h-5.956a2.56 2.56 0 0 1-1.18-.216 2.2 2.2 0 0 1-.889-.712v-5.78c1.772-.417 2.71-2.542 3.183-3.933v-1.8zm-7.357 4.917h2.695c.149 0 .292.052.397.144a.46.46 0 0 1 .165.348v6.55q0 .099-.041.19a.5.5 0 0 1-.122.16.6.6 0 0 1-.183.108.6.6 0 0 1-.216.038h-2.694a.6.6 0 0 1-.398-.147.47.47 0 0 1-.165-.35V35.41a.47.47 0 0 1 .166-.346.6.6 0 0 1 .396-.146m1.55 4.347c.14 0 .277.036.394.105a.65.65 0 0 1 .262.279.55.55 0 0 1 .04.359.6.6 0 0 1-.194.318.75.75 0 0 1-.364.17.8.8 0 0 1-.41-.035.7.7 0 0 1-.32-.23.57.57 0 0 1-.12-.345c0-.165.075-.323.209-.44a.77.77 0 0 1 .502-.181M19.798 70.45l6.158-.96 3.04 4.754c2.2 2.39 3.6-1.535 4.242-2.904l5.861-9.736c-1.363-.413-3.002-1.61-4.694-2.946-3.368.06-6.508-.464-8.815-3.02l-6.794 11.463-.594 1.104c-.462 1.433-.218 2.38 1.591 2.245zm45.386 0-6.126-.96-3.04 4.754c-2.206 2.39-3.606-1.535-4.242-2.904l-5.893-9.736c1.363-.413 3.007-1.61 4.694-2.946 3.368.06 6.508-.464 8.815-3.02l6.8 11.481.604 1.086c.462 1.433.218 2.38-1.591 2.245zm-22.69-45.339c2.636.004 5.212.69 7.402 1.974s3.896 3.107 4.902 5.238c1.005 2.131 1.267 4.475.75 6.736s-1.789 4.337-3.654 5.966c-1.866 1.63-4.242 2.738-6.828 3.187a15.1 15.1 0 0 1-7.701-.667c-2.435-.883-4.517-2.378-5.98-4.295-1.465-1.918-2.246-4.172-2.246-6.477a10.4 10.4 0 0 1 1.015-4.468 11.7 11.7 0 0 1 2.896-3.786 13.6 13.6 0 0 1 4.334-2.527 15 15 0 0 1 5.11-.881" clip-rule="evenodd"/>
  </g>
  <defs>
    <filter id="a" width="49.1" height="57.7" x="18" y="18" color-interpolation-filters="sRGB" filterUnits="userSpaceOnUse">
      <feFlood flood-opacity="0" result="BackgroundImageFix"/>
      <feBlend in="SourceGraphic" in2="BackgroundImageFix" mode="normal" result="shape"/>
      <feColorMatrix in="SourceAlpha" result="hardAlpha" type="matrix" values="0 0 0 0 0 0 0 0 0 0 0 0 0 0 0 0 0 0 127 0"/>
      <feOffset dx=".1" dy=".7"/>
      <feGaussianBlur stdDeviation=".55"/>
      <feComposite in2="hardAlpha" k2="-1" k3="1" operator="arithmetic"/>
      <feColorMatrix type="matrix" values="0 0 0 0 0 0 0 0 0 0 0 0 0 0 0 0 0 0 0.7 0"/>
      <feBlend in2="shape" mode="normal" result="effect1_innerShadow_482_995"/>
    </filter>
  </defs>
</svg>
